X:591
T: Yaoqiu jiefang xu geming
N: C2013
O: China, Fujian Yongding
S: II, 592]
R: Shange, Xiayang shange]
M: 2/4
L: 1/16
K: D
f2f2efe4fe | d2efedB6
d2e4ee | d2efefed | B8
d2efe4 | B2ded4
B2B2d2Bd | e6fe | d2efedB6 | dBe6 | d8
B2B2d2Bd | e6fe | d2efedBA | B8

